svgs/solid/toolbox.svg

<svg xmlns="http://www.w3.org/2000/svg" viewBox="0 0 512 512"><!-- Font Awesome Pro 6.0.0-alpha2 by @fontawesome - https://fontawesome.com License - https://fontawesome.com/license (Commercial License) --><path d="M502.625 182.625L457.375 137.375C451.375 131.375 443.25 128 434.75 128H384V80C384 53.5 362.5 32 336 32H176C149.5 32 128 53.5 128 80V128H77.25C68.75 128 60.625 131.375 54.625 137.375L9.375 182.625C3.375 188.625 0 196.75 0 205.25V304H128V272C128 263.125 135.125 256 144 256H176C184.875 256 192 263.125 192 272V304H320V272C320 263.125 327.125 256 336 256H368C376.875 256 384 263.125 384 272V304H512V205.25C512 196.75 508.625 188.625 502.625 182.625ZM336 128H176V80H336V128ZM384 368C384 376.875 376.875 384 368 384H336C327.125 384 320 376.875 320 368V336H192V368C192 376.875 184.875 384 176 384H144C135.125 384 128 376.875 128 368V336H0V448C0 465.625 14.375 480 32 480H480C497.625 480 512 465.625 512 448V336H384V368Z"/></svg>

<svg xmlns="http://www.w3.org/2000/svg" viewBox="0 0 512 512"><!--! Font Awesome Pro 6.0.0-alpha3 by @fontawesome - https://fontawesome.com License - https://fontawesome.com/license (Commercial License) --><path d="M502.6 182.6l-45.25-45.25C451.4 131.4 443.3 128 434.8 128H384V80C384 53.5 362.5 32 336 32h-160C149.5 32 128 53.5 128 80V128H77.25c-8.5 0-16.62 3.375-22.62 9.375L9.375 182.6C3.375 188.6 0 196.8 0 205.3V304h128v-32C128 263.1 135.1 256 144 256h32C184.9 256 192 263.1 192 272v32h128v-32C320 263.1 327.1 256 336 256h32C376.9 256 384 263.1 384 272v32h128V205.3C512 196.8 508.6 188.6 502.6 182.6zM336 128h-160V80h160V128zM384 368c0 8.875-7.125 16-16 16h-32c-8.875 0-16-7.125-16-16v-32H192v32C192 376.9 184.9 384 176 384h-32C135.1 384 128 376.9 128 368v-32H0V448c0 17.62 14.38 32 32 32h448c17.62 0 32-14.38 32-32v-112h-128V368z"/></svg>
